images/3234253.svg

<?xml version="1.0" encoding="UTF-8"?>
<svg xmlns="http://www.w3.org/2000/svg" xmlns:xlink="http://www.w3.org/1999/xlink" width="300pt" height="300pt" viewBox="0 0 300 300" version="1.1">
<defs>
<g>
<symbol overflow="visible" id="glyph0-0">
<path style="stroke:none;" d="M 0.453125 1.59375 L 0.453125 -6.34375 L 4.953125 -6.34375 L 4.953125 1.59375 Z M 0.953125 1.09375 L 4.453125 1.09375 L 4.453125 -5.84375 L 0.953125 -5.84375 Z M 0.953125 1.09375 "/>
</symbol>
<symbol overflow="visible" id="glyph0-1">
<path style="stroke:none;" d="M 3.546875 -5.953125 C 2.898438 -5.953125 2.382812 -5.710938 2 -5.234375 C 1.625 -4.753906 1.4375 -4.101562 1.4375 -3.28125 C 1.4375 -2.445312 1.625 -1.789062 2 -1.3125 C 2.382812 -0.832031 2.898438 -0.59375 3.546875 -0.59375 C 4.191406 -0.59375 4.703125 -0.832031 5.078125 -1.3125 C 5.453125 -1.789062 5.640625 -2.445312 5.640625 -3.28125 C 5.640625 -4.101562 5.453125 -4.753906 5.078125 -5.234375 C 4.703125 -5.710938 4.191406 -5.953125 3.546875 -5.953125 Z M 3.546875 -6.6875 C 4.460938 -6.6875 5.195312 -6.375 5.75 -5.75 C 6.300781 -5.132812 6.578125 -4.3125 6.578125 -3.28125 C 6.578125 -2.238281 6.300781 -1.410156 5.75 -0.796875 C 5.195312 -0.179688 4.460938 0.125 3.546875 0.125 C 2.617188 0.125 1.878906 -0.179688 1.328125 -0.796875 C 0.773438 -1.410156 0.5 -2.238281 0.5 -3.28125 C 0.5 -4.3125 0.773438 -5.132812 1.328125 -5.75 C 1.878906 -6.375 2.617188 -6.6875 3.546875 -6.6875 Z M 3.546875 -6.6875 "/>
</symbol>
<symbol overflow="visible" id="glyph0-2">
<path style="stroke:none;" d="M 0.890625 -6.5625 L 2.078125 -6.5625 L 4.984375 -1.078125 L 4.984375 -6.5625 L 5.84375 -6.5625 L 5.84375 0 L 4.65625 0 L 1.75 -5.484375 L 1.75 0 L 0.890625 0 Z M 0.890625 -6.5625 "/>
</symbol>
<symbol overflow="visible" id="glyph0-3">
<path style="stroke:none;" d="M 0.890625 -6.5625 L 1.765625 -6.5625 L 1.765625 -3.875 L 5 -3.875 L 5 -6.5625 L 5.890625 -6.5625 L 5.890625 0 L 5 0 L 5 -3.125 L 1.765625 -3.125 L 1.765625 0 L 0.890625 0 Z M 0.890625 -6.5625 "/>
</symbol>
<symbol overflow="visible" id="glyph0-4">
<path style="stroke:none;" d="M 0.890625 -6.5625 L 4.65625 -6.5625 L 4.65625 -5.8125 L 1.765625 -5.8125 L 1.765625 -3.875 L 4.375 -3.875 L 4.375 -3.140625 L 1.765625 -3.140625 L 1.765625 0 L 0.890625 0 Z M 0.890625 -6.5625 "/>
</symbol>
</g>
</defs>
<g id="surface36305">
<rect x="0" y="0" width="300" height="300" style="fill:rgb(100%,100%,100%);fill-opacity:1;stroke:none;"/>
<path style="fill:none;stroke-width:1.2;stroke-linecap:butt;stroke-linejoin:miter;stroke:rgb(0%,0%,0%);stroke-opacity:1;stroke-miterlimit:10;" d="M 229.582031 153.457031 L 253.644531 154.523438 "/>
<path style="fill:none;stroke-width:1.2;stroke-linecap:butt;stroke-linejoin:miter;stroke:rgb(0%,0%,100%);stroke-opacity:1;stroke-miterlimit:10;" d="M 216.628906 173.761719 L 223.105469 163.609375 "/>
<path style="fill:none;stroke-width:1.2;stroke-linecap:butt;stroke-linejoin:miter;stroke:rgb(0%,0%,0%);stroke-opacity:1;stroke-miterlimit:10;" d="M 223.105469 163.609375 L 229.582031 153.457031 "/>
<path style="fill:none;stroke-width:1.2;stroke-linecap:butt;stroke-linejoin:miter;stroke:rgb(0%,0%,0%);stroke-opacity:1;stroke-miterlimit:10;" d="M 253.644531 154.523438 L 259.195312 165.210938 "/>
<path style="fill:none;stroke-width:1.2;stroke-linecap:butt;stroke-linejoin:miter;stroke:rgb(100%,0%,0%);stroke-opacity:1;stroke-miterlimit:10;" d="M 259.195312 165.210938 L 264.75 175.894531 "/>
<path style="fill:none;stroke-width:1.2;stroke-linecap:butt;stroke-linejoin:miter;stroke:rgb(100%,0%,0%);stroke-opacity:1;stroke-miterlimit:10;" d="M 264.75 175.894531 L 258.273438 186.046875 "/>
<path style="fill:none;stroke-width:1.2;stroke-linecap:butt;stroke-linejoin:miter;stroke:rgb(0%,0%,0%);stroke-opacity:1;stroke-miterlimit:10;" d="M 258.273438 186.046875 L 251.796875 196.199219 "/>
<path style=" stroke:none;fill-rule:nonzero;fill:rgb(100%,100%,100%);fill-opacity:1;" d="M 260.75 170.394531 L 268.75 170.394531 L 268.75 181.394531 L 260.75 181.394531 Z M 260.75 170.394531 "/>
<g style="fill:rgb(100%,0%,0%);fill-opacity:1;">
  <use xlink:href="#glyph0-1" x="260.75" y="179.057617"/>
</g>
<path style="fill:none;stroke-width:1.2;stroke-linecap:butt;stroke-linejoin:miter;stroke:rgb(0%,0%,0%);stroke-opacity:1;stroke-miterlimit:10;" d="M 251.796875 196.199219 L 227.734375 195.132812 "/>
<path style="fill:none;stroke-width:1.2;stroke-linecap:butt;stroke-linejoin:miter;stroke:rgb(0%,0%,0%);stroke-opacity:1;stroke-miterlimit:10;" d="M 227.734375 195.132812 L 222.183594 184.445312 "/>
<path style="fill:none;stroke-width:1.2;stroke-linecap:butt;stroke-linejoin:miter;stroke:rgb(0%,0%,100%);stroke-opacity:1;stroke-miterlimit:10;" d="M 222.183594 184.445312 L 216.628906 173.761719 "/>
<path style="fill:none;stroke-width:1.2;stroke-linecap:butt;stroke-linejoin:miter;stroke:rgb(0%,0%,100%);stroke-opacity:1;stroke-miterlimit:10;" d="M 216.628906 173.761719 L 204.597656 173.226562 "/>
<path style="fill:none;stroke-width:1.2;stroke-linecap:butt;stroke-linejoin:miter;stroke:rgb(0%,0%,0%);stroke-opacity:1;stroke-miterlimit:10;" d="M 204.597656 173.226562 L 192.566406 172.695312 "/>
<path style=" stroke:none;fill-rule:nonzero;fill:rgb(100%,100%,100%);fill-opacity:1;" d="M 213.628906 168.261719 L 220.628906 168.261719 L 220.628906 179.261719 L 213.628906 179.261719 Z M 213.628906 168.261719 "/>
<g style="fill:rgb(0%,0%,100%);fill-opacity:1;">
  <use xlink:href="#glyph0-2" x="213.628906" y="176.924805"/>
</g>
<path style="fill:none;stroke-width:1.2;stroke-linecap:butt;stroke-linejoin:miter;stroke:rgb(0%,0%,0%);stroke-opacity:1;stroke-miterlimit:10;" d="M 192.566406 172.695312 L 181.460938 151.324219 "/>
<path style="fill:none;stroke-width:1.2;stroke-linecap:butt;stroke-linejoin:miter;stroke:rgb(0%,0%,0%);stroke-opacity:1;stroke-miterlimit:10;" d="M 181.460938 151.324219 L 169.433594 150.789062 "/>
<path style="fill:none;stroke-width:1.2;stroke-linecap:butt;stroke-linejoin:miter;stroke:rgb(0%,0%,100%);stroke-opacity:1;stroke-miterlimit:10;" d="M 169.433594 150.789062 L 157.402344 150.253906 "/>
<path style="fill:none;stroke-width:1.2;stroke-linecap:butt;stroke-linejoin:miter;stroke:rgb(0%,0%,100%);stroke-opacity:1;stroke-miterlimit:10;" d="M 157.402344 150.253906 L 151.847656 139.570312 "/>
<path style="fill:none;stroke-width:1.2;stroke-linecap:butt;stroke-linejoin:miter;stroke:rgb(0%,0%,0%);stroke-opacity:1;stroke-miterlimit:10;" d="M 151.847656 139.570312 L 146.296875 128.886719 "/>
<path style=" stroke:none;fill-rule:nonzero;fill:rgb(100%,100%,100%);fill-opacity:1;" d="M 150.402344 144.753906 L 164.402344 144.753906 L 164.402344 155.753906 L 150.402344 155.753906 Z M 150.402344 144.753906 "/>
<g style="fill:rgb(0%,0%,100%);fill-opacity:1;">
  <use xlink:href="#glyph0-2" x="150.402344" y="153.416992"/>
  <use xlink:href="#glyph0-3" x="157.379883" y="153.416992"/>
</g>
<path style="fill:none;stroke-width:1.2;stroke-linecap:butt;stroke-linejoin:miter;stroke:rgb(0%,0%,0%);stroke-opacity:1;stroke-miterlimit:10;" d="M 146.296875 128.886719 L 152.773438 118.734375 "/>
<path style="fill:none;stroke-width:1.2;stroke-linecap:butt;stroke-linejoin:miter;stroke:rgb(0%,0%,100%);stroke-opacity:1;stroke-miterlimit:10;" d="M 152.773438 118.734375 L 159.25 108.582031 "/>
<path style="fill:none;stroke-width:1.2;stroke-linecap:butt;stroke-linejoin:miter;stroke:rgb(0%,0%,0%);stroke-opacity:1;stroke-miterlimit:10;" d="M 142.8125 123.808594 L 147.996094 115.683594 "/>
<path style="fill:none;stroke-width:1.2;stroke-linecap:butt;stroke-linejoin:miter;stroke:rgb(0%,0%,100%);stroke-opacity:1;stroke-miterlimit:10;" d="M 147.996094 115.683594 L 153.175781 107.5625 "/>
<path style="fill:none;stroke-width:1.2;stroke-linecap:butt;stroke-linejoin:miter;stroke:rgb(0%,0%,0%);stroke-opacity:1;stroke-miterlimit:10;" d="M 122.234375 127.816406 L 146.296875 128.886719 "/>
<path style="fill:none;stroke-width:1.2;stroke-linecap:butt;stroke-linejoin:miter;stroke:rgb(0%,0%,100%);stroke-opacity:1;stroke-miterlimit:10;" d="M 159.25 108.582031 L 153.695312 97.894531 "/>
<path style="fill:none;stroke-width:1.2;stroke-linecap:butt;stroke-linejoin:miter;stroke:rgb(0%,0%,0%);stroke-opacity:1;stroke-miterlimit:10;" d="M 153.695312 97.894531 L 148.144531 87.210938 "/>
<path style=" stroke:none;fill-rule:nonzero;fill:rgb(100%,100%,100%);fill-opacity:1;" d="M 156.25 103.082031 L 163.25 103.082031 L 163.25 114.082031 L 156.25 114.082031 Z M 156.25 103.082031 "/>
<g style="fill:rgb(0%,0%,100%);fill-opacity:1;">
  <use xlink:href="#glyph0-2" x="156.25" y="111.745117"/>
</g>
<path style="fill:none;stroke-width:1.2;stroke-linecap:butt;stroke-linejoin:miter;stroke:rgb(0%,0%,0%);stroke-opacity:1;stroke-miterlimit:10;" d="M 148.144531 87.210938 L 136.113281 86.675781 "/>
<path style="fill:none;stroke-width:1.2;stroke-linecap:butt;stroke-linejoin:miter;stroke:rgb(0%,0%,100%);stroke-opacity:1;stroke-miterlimit:10;" d="M 136.113281 86.675781 L 124.082031 86.144531 "/>
<path style="fill:none;stroke-width:1.2;stroke-linecap:butt;stroke-linejoin:miter;stroke:rgb(0%,0%,0%);stroke-opacity:1;stroke-miterlimit:10;" d="M 145.488281 92.765625 L 135.863281 92.339844 "/>
<path style="fill:none;stroke-width:1.2;stroke-linecap:butt;stroke-linejoin:miter;stroke:rgb(0%,0%,100%);stroke-opacity:1;stroke-miterlimit:10;" d="M 135.863281 92.339844 L 126.238281 91.910156 "/>
<path style="fill:none;stroke-width:1.2;stroke-linecap:butt;stroke-linejoin:miter;stroke:rgb(0%,0%,100%);stroke-opacity:1;stroke-miterlimit:10;" d="M 124.082031 86.144531 L 117.605469 96.296875 "/>
<path style="fill:none;stroke-width:1.2;stroke-linecap:butt;stroke-linejoin:miter;stroke:rgb(0%,0%,0%);stroke-opacity:1;stroke-miterlimit:10;" d="M 117.605469 96.296875 L 111.128906 106.445312 "/>
<path style=" stroke:none;fill-rule:nonzero;fill:rgb(100%,100%,100%);fill-opacity:1;" d="M 121.082031 80.644531 L 128.082031 80.644531 L 128.082031 91.644531 L 121.082031 91.644531 Z M 121.082031 80.644531 "/>
<g style="fill:rgb(0%,0%,100%);fill-opacity:1;">
  <use xlink:href="#glyph0-2" x="121.082031" y="89.307617"/>
</g>
<path style="fill:none;stroke-width:1.2;stroke-linecap:butt;stroke-linejoin:miter;stroke:rgb(0%,0%,0%);stroke-opacity:1;stroke-miterlimit:10;" d="M 111.128906 106.445312 L 122.234375 127.816406 "/>
<path style="fill:none;stroke-width:1.2;stroke-linecap:butt;stroke-linejoin:miter;stroke:rgb(0%,0%,0%);stroke-opacity:1;stroke-miterlimit:10;" d="M 107.210938 111.199219 L 116.097656 128.292969 "/>
<path style="fill:none;stroke-width:1.2;stroke-linecap:butt;stroke-linejoin:miter;stroke:rgb(0%,0%,0%);stroke-opacity:1;stroke-miterlimit:10;" d="M 87.066406 105.378906 L 111.128906 106.445312 "/>
<path style="fill:none;stroke-width:1.2;stroke-linecap:butt;stroke-linejoin:miter;stroke:rgb(0%,0%,0%);stroke-opacity:1;stroke-miterlimit:10;" d="M 122.234375 127.816406 L 109.28125 148.121094 "/>
<path style="fill:none;stroke-width:1.2;stroke-linecap:butt;stroke-linejoin:miter;stroke:rgb(0%,0%,0%);stroke-opacity:1;stroke-miterlimit:10;" d="M 109.28125 148.121094 L 85.21875 147.054688 "/>
<path style="fill:none;stroke-width:1.2;stroke-linecap:butt;stroke-linejoin:miter;stroke:rgb(0%,0%,0%);stroke-opacity:1;stroke-miterlimit:10;" d="M 107.125 142.351562 L 87.875 141.5 "/>
<path style="fill:none;stroke-width:1.2;stroke-linecap:butt;stroke-linejoin:miter;stroke:rgb(0%,0%,0%);stroke-opacity:1;stroke-miterlimit:10;" d="M 85.21875 147.054688 L 74.113281 125.683594 "/>
<path style="fill:none;stroke-width:1.2;stroke-linecap:butt;stroke-linejoin:miter;stroke:rgb(0%,0%,0%);stroke-opacity:1;stroke-miterlimit:10;" d="M 85.21875 147.054688 L 72.265625 167.359375 "/>
<path style="fill:none;stroke-width:1.2;stroke-linecap:butt;stroke-linejoin:miter;stroke:rgb(0%,0%,0%);stroke-opacity:1;stroke-miterlimit:10;" d="M 74.113281 125.683594 L 87.066406 105.378906 "/>
<path style="fill:none;stroke-width:1.2;stroke-linecap:butt;stroke-linejoin:miter;stroke:rgb(0%,0%,0%);stroke-opacity:1;stroke-miterlimit:10;" d="M 80.1875 126.703125 L 90.550781 110.457031 "/>
<path style="fill:none;stroke-width:1.2;stroke-linecap:butt;stroke-linejoin:miter;stroke:rgb(0%,0%,0%);stroke-opacity:1;stroke-miterlimit:10;" d="M 72.265625 167.359375 L 48.203125 166.289062 "/>
<path style="fill:none;stroke-width:1.2;stroke-linecap:butt;stroke-linejoin:miter;stroke:rgb(0%,0%,0%);stroke-opacity:1;stroke-miterlimit:10;" d="M 69.609375 172.914062 L 50.359375 172.058594 "/>
<path style="fill:none;stroke-width:1.2;stroke-linecap:butt;stroke-linejoin:miter;stroke:rgb(0%,0%,0%);stroke-opacity:1;stroke-miterlimit:10;" d="M 83.371094 188.726562 L 72.265625 167.359375 "/>
<path style="fill:none;stroke-width:1.2;stroke-linecap:butt;stroke-linejoin:miter;stroke:rgb(0%,0%,0%);stroke-opacity:1;stroke-miterlimit:10;" d="M 48.203125 166.289062 L 35.25 186.59375 "/>
<path style="fill:none;stroke-width:1.2;stroke-linecap:butt;stroke-linejoin:miter;stroke:rgb(0%,0%,0%);stroke-opacity:1;stroke-miterlimit:10;" d="M 35.25 186.59375 L 46.355469 207.964844 "/>
<path style="fill:none;stroke-width:1.2;stroke-linecap:butt;stroke-linejoin:miter;stroke:rgb(0%,0%,0%);stroke-opacity:1;stroke-miterlimit:10;" d="M 41.390625 186.117188 L 50.273438 203.214844 "/>
<path style="fill:none;stroke-width:1.2;stroke-linecap:butt;stroke-linejoin:miter;stroke:rgb(0%,0%,0%);stroke-opacity:1;stroke-miterlimit:10;" d="M 46.355469 207.964844 L 70.417969 209.03125 "/>
<path style="fill:none;stroke-width:1.2;stroke-linecap:butt;stroke-linejoin:miter;stroke:rgb(0%,0%,0%);stroke-opacity:1;stroke-miterlimit:10;" d="M 70.417969 209.03125 L 83.371094 188.726562 "/>
<path style="fill:none;stroke-width:1.2;stroke-linecap:butt;stroke-linejoin:miter;stroke:rgb(0%,0%,0%);stroke-opacity:1;stroke-miterlimit:10;" d="M 66.933594 203.953125 L 77.296875 187.710938 "/>
<path style="fill:none;stroke-width:1.2;stroke-linecap:butt;stroke-linejoin:miter;stroke:rgb(0%,0%,0%);stroke-opacity:1;stroke-miterlimit:10;" d="M 83.371094 188.726562 L 107.433594 189.796875 "/>
<path style="fill:none;stroke-width:1.2;stroke-linecap:butt;stroke-linejoin:miter;stroke:rgb(0%,0%,0%);stroke-opacity:1;stroke-miterlimit:10;" d="M 107.433594 189.796875 L 119.460938 190.328125 "/>
<path style="fill:none;stroke-width:1.2;stroke-linecap:butt;stroke-linejoin:miter;stroke:rgb(20%,80%,80%);stroke-opacity:1;stroke-miterlimit:10;" d="M 119.460938 190.328125 L 131.492188 190.863281 "/>
<path style="fill:none;stroke-width:1.2;stroke-linecap:butt;stroke-linejoin:miter;stroke:rgb(0%,0%,0%);stroke-opacity:1;stroke-miterlimit:10;" d="M 107.433594 189.796875 L 106.898438 201.824219 "/>
<path style="fill:none;stroke-width:1.2;stroke-linecap:butt;stroke-linejoin:miter;stroke:rgb(20%,80%,80%);stroke-opacity:1;stroke-miterlimit:10;" d="M 106.898438 201.824219 L 106.363281 213.855469 "/>
<path style="fill:none;stroke-width:1.2;stroke-linecap:butt;stroke-linejoin:miter;stroke:rgb(0%,0%,0%);stroke-opacity:1;stroke-miterlimit:10;" d="M 107.433594 189.796875 L 107.964844 177.765625 "/>
<path style="fill:none;stroke-width:1.2;stroke-linecap:butt;stroke-linejoin:miter;stroke:rgb(20%,80%,80%);stroke-opacity:1;stroke-miterlimit:10;" d="M 107.964844 177.765625 L 108.5 165.734375 "/>
<path style=" stroke:none;fill-rule:nonzero;fill:rgb(100%,100%,100%);fill-opacity:1;" d="M 128.492188 185.363281 L 134.492188 185.363281 L 134.492188 196.363281 L 128.492188 196.363281 Z M 128.492188 185.363281 "/>
<g style="fill:rgb(20%,80%,80%);fill-opacity:1;">
  <use xlink:href="#glyph0-4" x="128.492188" y="194.026367"/>
</g>
<path style=" stroke:none;fill-rule:nonzero;fill:rgb(100%,100%,100%);fill-opacity:1;" d="M 103.363281 208.355469 L 109.363281 208.355469 L 109.363281 219.355469 L 103.363281 219.355469 Z M 103.363281 208.355469 "/>
<g style="fill:rgb(20%,80%,80%);fill-opacity:1;">
  <use xlink:href="#glyph0-4" x="103.363281" y="217.018555"/>
</g>
<path style=" stroke:none;fill-rule:nonzero;fill:rgb(100%,100%,100%);fill-opacity:1;" d="M 105.5 160.234375 L 111.5 160.234375 L 111.5 171.234375 L 105.5 171.234375 Z M 105.5 160.234375 "/>
<g style="fill:rgb(20%,80%,80%);fill-opacity:1;">
  <use xlink:href="#glyph0-4" x="105.5" y="168.897461"/>
</g>
</g>
</svg>

<svg xmlns="http://www.w3.org/2000/svg" xmlns:xlink="http://www.w3.org/1999/xlink" width="300pt" height="300pt" viewBox="0 0 300 300"><defs><symbol overflow="visible"><path d="M.453 1.594v-7.938h4.5v7.938zm.5-.5h3.5v-6.938h-3.5zm0 0"/></symbol><symbol overflow="visible" id="a"><path d="M3.547-5.953c-.65 0-1.164.242-1.547.72-.375.48-.563 1.13-.563 1.952 0 .835.188 1.49.563 1.967.383.48.898.72 1.547.72.644 0 1.156-.24 1.53-.72.376-.476.564-1.132.564-1.968 0-.822-.187-1.474-.562-1.954-.375-.477-.887-.72-1.53-.72zm0-.734c.914 0 1.648.312 2.203.937.55.617.828 1.438.828 2.47 0 1.042-.277 1.87-.828 2.483-.555.617-1.29.922-2.203.922-.93 0-1.668-.305-2.22-.922C.774-1.41.5-2.237.5-3.28c0-1.033.273-1.853.828-2.47.55-.625 1.29-.938 2.22-.938zm0 0"/></symbol><symbol overflow="visible" id="b"><path d="M.89-6.563H2.08l2.906 5.485v-5.484h.86V0H4.656L1.75-5.484V0H.89zm0 0"/></symbol><symbol overflow="visible" id="c"><path d="M.89-6.563h.876v2.688H5v-2.688h.89V0H5v-3.125H1.766V0H.89zm0 0"/></symbol><symbol overflow="visible" id="d"><path d="M.89-6.563h3.766v.75h-2.89v1.938h2.61v.734h-2.61V0H.89zm0 0"/></symbol></defs><g><path fill="#fff" d="M0 0h300v300H0z"/><path d="M229.582 153.457l24.063 1.066" stroke-width="1.2" stroke="#000" stroke-miterlimit="10" fill="none"/><path d="M216.63 173.762l6.475-10.153" stroke-width="1.2" stroke="#00f" stroke-miterlimit="10" fill="none"/><path d="M223.105 163.61l6.477-10.153M253.645 154.523l5.55 10.688" stroke-width="1.2" stroke="#000" stroke-miterlimit="10" fill="none"/><path d="M259.195 165.21l5.555 10.685M264.75 175.895l-6.477 10.152" stroke-width="1.2" stroke="#f00" stroke-miterlimit="10" fill="none"/><path d="M258.273 186.047l-6.476 10.152" stroke-width="1.2" stroke="#000" stroke-miterlimit="10" fill="none"/><path d="M260.75 170.395h8v11h-8zm0 0" fill="#fff"/><use xlink:href="#a" x="260.75" y="179.058" fill="#f00"/><path d="M251.797 196.2l-24.063-1.067M227.734 195.133l-5.55-10.688" stroke-width="1.2" stroke="#000" stroke-miterlimit="10" fill="none"/><path d="M222.184 184.445l-5.555-10.683M216.63 173.762l-12.032-.535" stroke-width="1.2" stroke="#00f" stroke-miterlimit="10" fill="none"/><path d="M204.598 173.227l-12.032-.532" stroke-width="1.2" stroke="#000" stroke-miterlimit="10" fill="none"/><path d="M213.63 168.262h7v11h-7zm0 0" fill="#fff"/><use xlink:href="#b" x="213.629" y="176.925" fill="#00f"/><path d="M192.566 172.695l-11.105-21.37M181.46 151.324l-12.026-.535" stroke-width="1.2" stroke="#000" stroke-miterlimit="10" fill="none"/><path d="M169.434 150.79l-12.032-.536M157.402 150.254l-5.554-10.684" stroke-width="1.2" stroke="#00f" stroke-miterlimit="10" fill="none"/><path d="M151.848 139.57l-5.55-10.683" stroke-width="1.2" stroke="#000" stroke-miterlimit="10" fill="none"/><path d="M150.402 144.754h14v11h-14zm0 0" fill="#fff"/><g fill="#00f"><use xlink:href="#b" x="150.402" y="153.417"/><use xlink:href="#c" x="157.38" y="153.417"/></g><path d="M146.297 128.887l6.476-10.153" stroke-width="1.2" stroke="#000" stroke-miterlimit="10" fill="none"/><path d="M152.773 118.734l6.477-10.152" stroke-width="1.2" stroke="#00f" stroke-miterlimit="10" fill="none"/><path d="M142.813 123.81l5.183-8.126" stroke-width="1.2" stroke="#000" stroke-miterlimit="10" fill="none"/><path d="M147.996 115.684l5.18-8.12" stroke-width="1.2" stroke="#00f" stroke-miterlimit="10" fill="none"/><path d="M122.234 127.816l24.063 1.07" stroke-width="1.2" stroke="#000" stroke-miterlimit="10" fill="none"/><path d="M159.25 108.582l-5.555-10.687" stroke-width="1.2" stroke="#00f" stroke-miterlimit="10" fill="none"/><path d="M153.695 97.895l-5.55-10.684" stroke-width="1.2" stroke="#000" stroke-miterlimit="10" fill="none"/><path d="M156.25 103.082h7v11h-7zm0 0" fill="#fff"/><use xlink:href="#b" x="156.25" y="111.745" fill="#00f"/><path d="M148.145 87.21l-12.032-.534" stroke-width="1.2" stroke="#000" stroke-miterlimit="10" fill="none"/><path d="M136.113 86.676l-12.03-.53" stroke-width="1.2" stroke="#00f" stroke-miterlimit="10" fill="none"/><path d="M145.488 92.766l-9.625-.426" stroke-width="1.2" stroke="#000" stroke-miterlimit="10" fill="none"/><path d="M135.863 92.34l-9.625-.43M124.082 86.145l-6.477 10.152" stroke-width="1.2" stroke="#00f" stroke-miterlimit="10" fill="none"/><path d="M117.605 96.297l-6.476 10.148" stroke-width="1.2" stroke="#000" stroke-miterlimit="10" fill="none"/><path d="M121.082 80.645h7v11h-7zm0 0" fill="#fff"/><use xlink:href="#b" x="121.082" y="89.308" fill="#00f"/><path d="M111.13 106.445l11.104 21.37M107.21 111.2l8.888 17.093M87.066 105.38l24.063 1.065M122.234 127.816L109.28 148.12M109.28 148.12l-24.06-1.065M107.125 142.352l-19.25-.852M85.22 147.055l-11.107-21.37M85.22 147.055L72.265 167.36M74.113 125.684l12.953-20.305M80.188 126.703l10.363-16.246M72.266 167.36l-24.063-1.07M69.61 172.914l-19.25-.855M83.37 188.727L72.267 167.36M48.203 166.29L35.25 186.593M35.25 186.594l11.105 21.37M41.39 186.117l8.883 17.098M46.355 207.965l24.063 1.066M70.418 209.03l12.953-20.303M66.934 203.953l10.363-16.242M83.37 188.727l24.064 1.07M107.434 189.797l12.027.53" stroke-width="1.2" stroke="#000" stroke-miterlimit="10" fill="none"/><path d="M119.46 190.328l12.032.535" stroke-width="1.2" stroke="#3cc" stroke-miterlimit="10" fill="none"/><path d="M107.434 189.797l-.536 12.027" stroke-width="1.2" stroke="#000" stroke-miterlimit="10" fill="none"/><path d="M106.898 201.824l-.535 12.03" stroke-width="1.2" stroke="#3cc" stroke-miterlimit="10" fill="none"/><path d="M107.434 189.797l.53-12.03" stroke-width="1.2" stroke="#000" stroke-miterlimit="10" fill="none"/><path d="M107.965 177.766l.535-12.032" stroke-width="1.2" stroke="#3cc" stroke-miterlimit="10" fill="none"/><path d="M128.492 185.363h6v11h-6zm0 0" fill="#fff"/><use xlink:href="#d" x="128.492" y="194.026" fill="#3cc"/><path d="M103.363 208.355h6v11h-6zm0 0" fill="#fff"/><use xlink:href="#d" x="103.363" y="217.019" fill="#3cc"/><path d="M105.5 160.234h6v11h-6zm0 0" fill="#fff"/><use xlink:href="#d" x="105.5" y="168.897" fill="#3cc"/></g></svg>
